src/22/actions/text-unflow.svg

<svg xmlns="http://www.w3.org/2000/svg" viewBox="0 0 22 22">
  <defs id="defs3051">
    <style type="text/css" id="current-color-scheme">
      .ColorScheme-Text {
        color:#5d656b;
      }
      .ColorScheme-Highlight {
        color:#3daee9;
      }
      </style>
  </defs>
 <path 
     style="fill:currentColor;fill-opacity:1;stroke:none" 
     d="M 3 3 L 3 19 L 12 19 L 12 18 L 4 18 L 4 4 L 18 4 L 18 12 L 19 12 L 19 3 L 3 3 z M 5 5 L 5 6 L 17 6 L 17 5 L 5 5 z M 5 7 L 5 8 L 14 8 L 14 7 L 5 7 z M 5 10 L 5 11 L 17 11 L 17 10 L 5 10 z M 5 12 L 5 13 L 9 13 L 9 12 L 5 12 z M 5 15 L 5 16 L 12 16 L 12 15 L 5 15 z "
     class="ColorScheme-Text"
     />
 <path 
     style="fill:#da4453;fill-opacity:1;stroke:none" 
     d="M 13.980469 13 L 12.990234 13.990234 L 15 16 L 12.990234 18.009766 L 13.980469 19 L 15.990234 16.990234 L 18 19 L 18.990234 18.009766 L 16.980469 16 L 18.990234 13.990234 L 18 13 L 15.990234 15.009766 L 13.980469 13 z "
     />
</svg>

<svg xmlns="http://www.w3.org/2000/svg" viewBox="0 0 22 22"><defs id="defs3051"><style type="text/css" id="current-color-scheme"></style></defs><path d="M3 3v16h9v-1H4V4h14v8h1V3H3zm2 2v1h12V5H5zm0 2v1h9V7H5zm0 3v1h12v-1H5zm0 2v1h4v-1H5zm0 3v1h7v-1H5z" fill="currentColor" color="#5d656b"/><path d="M13.98 13l-.99.99L15 16l-2.01 2.01.99.99 2.01-2.01L18 19l.99-.99L16.98 16l2.01-2.01L18 13l-2.01 2.01L13.98 13z" fill="#da4453"/></svg>
